img/icon-arr7.svg

<svg width="79" height="68" viewBox="0 0 79 68" fill="none" xmlns="http://www.w3.org/2000/svg">
<path d="M78.0301 68C74.7764 67.9334 71.7365 67.5028 68.6849 67.3849C66.229 67.2902 63.7601 67.6236 61.2952 67.6543C60.6672 67.6622 60.0327 67.2429 59.4014 67.0197C59.7033 66.452 59.8892 65.7671 60.3271 65.3367C62.112 63.5834 64.0519 61.9824 65.7861 60.1834C67.5477 58.3555 67.1818 56.7839 64.9823 55.6723C64.2846 55.3196 63.6253 54.8704 63.0033 54.3941C60.9159 52.796 59.5739 50.4177 57.1881 49.0861C55.6832 48.2465 55.4378 46.2679 54.3808 45.0959C53.4212 44.0317 51.1766 43.9841 50.4487 42.8723C49.054 40.7416 46.5049 39.5063 45.855 36.8163C45.7373 36.3297 44.9751 35.844 44.4102 35.6518C43.5927 35.3736 42.3025 35.6738 41.8919 35.1748C41.0059 34.0982 40.2421 32.7204 40.0148 31.3693C39.8178 30.1989 39.2681 29.0578 38.4852 29.0053C37.0402 28.9085 37.0583 28.1795 37.083 27.2372C37.1134 26.0842 36.9842 25.3386 35.4248 25.4684C33.5202 25.6271 31.6605 25.4438 30.98 23.0124C30.7995 22.3675 29.8646 21.7225 29.1467 21.5063C28.6551 21.3582 27.9463 21.969 27.323 22.2112C26.4048 22.5677 25.3226 21.8518 25.3367 20.8235C25.3516 19.7429 25.5518 18.6661 25.5819 17.5848C25.6005 16.9228 25.873 15.7949 24.4894 16.7965C23.8136 17.2859 22.933 17.5351 22.1101 17.7749C20.5841 18.2195 19.6782 17.3548 19.7758 15.6639C19.8053 15.1522 19.7417 14.6339 19.7062 14.1199C19.6377 13.1358 19.3504 12.769 18.4002 13.5207C17.9734 13.8583 17.3432 14.0545 16.7883 14.0964C15.1103 14.2235 14.7865 13.7692 15.208 12.0611C15.432 11.1523 15.672 10.2475 15.905 9.34086L13.2102 10.3436C12.761 10.5108 12.3237 10.7325 11.8599 10.8326C11.1375 10.9882 10.397 11.0609 9.66402 11.169C9.68379 10.2243 9.6332 9.26984 9.76073 8.33996C9.80709 8.00289 10.5057 7.7256 10.5062 7.4197C10.5071 6.92113 11.0644 5.84077 9.68308 6.12135C9.19293 6.22097 8.68112 6.22073 8.19497 6.33231C5.97645 6.84167 5.59336 6.6436 5.89691 4.32466C6.04304 3.21007 5.39782 3.6763 5.16862 3.73701C3.77016 4.10736 2.39971 4.57992 1.00643 4.97067C0.699111 5.05693 0.336731 4.95051 0 4.9327C0.102361 4.59328 0.117891 4.18777 0.320024 3.9243C2.72797 0.787059 6.16023 0.0421277 9.85651 0.000169704C10.6636 -0.00897198 10.8154 0.350835 10.4354 1.17359C10.1085 1.88148 9.79156 3.05771 11.4649 2.1494C12.0757 1.81796 12.9516 1.16304 13.7874 2.29637C14.4453 3.18827 14.6202 3.81905 13.9161 4.69149C13.6944 4.96598 13.621 5.40502 13.5963 5.77678C13.5787 6.04353 13.7057 6.51866 13.8552 6.55616C14.1531 6.63164 14.6472 6.58687 14.8206 6.38622C15.7297 5.33422 16.8867 4.99106 18.2228 4.81854C19.5681 4.64508 19.8911 5.24211 19.7535 6.36325C19.6956 6.83276 19.5914 7.32524 19.3791 7.74177C18.6802 9.11326 18.5835 9.74919 20.5288 9.17772C21.6706 8.84229 22.3843 9.79209 22.6071 10.8769C22.7506 11.5759 22.7252 12.3145 22.7278 13.0355C22.7314 14.0078 22.87 13.9527 23.6618 13.4171C24.5056 12.8466 25.6205 12.4336 26.6312 12.4045C28.0419 12.3637 29.1485 13.6424 28.7398 15.0296C28.2572 16.6669 29.1041 17.5403 30.2089 17.7955C31.9749 18.2038 32.8604 19.4602 33.1216 20.7966C33.4783 22.6235 34.6363 22.1877 35.6916 22.2438C36.8362 22.3047 37.9887 22.2243 39.1314 22.3021C39.4787 22.3258 40.0682 22.6345 40.1002 22.8717C40.4715 25.6058 43.6207 27.2635 42.9851 30.4056C42.7769 31.4349 43.4579 31.8971 44.5549 32.148C46.5348 32.6004 47.6897 34.0872 49.0642 35.5946C51.2088 37.9468 52.5169 41.2786 56.0339 42.3599C56.7713 42.5864 57.2537 43.8181 57.7385 44.6531C58.6936 46.2983 59.9306 47.4542 61.6268 48.4989C63.8201 49.8498 65.5275 51.9908 67.4197 53.8166C67.7627 54.1475 67.9228 54.6761 68.2811 54.9799C69.5681 56.0703 71.1785 55.5122 71.3618 53.8656C71.471 52.8834 71.1425 51.4489 72.4457 51.5279C73.1634 51.5715 73.8011 53.021 74.4637 53.8459C74.5162 53.911 74.4371 54.0887 74.4915 54.1436C76.2923 55.9684 76.4538 58.5009 77.3263 60.7176C78.0301 62.5063 78.5516 64.3773 78.9888 66.2495C79.0883 66.6766 78.5068 67.2598 78.0301 68Z" fill="white"/>
</svg>

<svg width="79" height="68" fill="none" xmlns="http://www.w3.org/2000/svg"><path d="M78.03 68c-3.254-.067-6.293-.497-9.345-.615-2.456-.095-4.925.239-7.39.27-.628.007-1.262-.412-1.894-.635.302-.568.488-1.253.926-1.683 1.785-1.754 3.725-3.355 5.46-5.154 1.76-1.828 1.395-3.4-.805-4.51-.697-.353-1.357-.803-1.979-1.279-2.087-1.598-3.43-3.976-5.815-5.308-1.505-.84-1.75-2.818-2.807-3.99-.96-1.064-3.204-1.112-3.932-2.224-1.395-2.13-3.944-3.366-4.594-6.056-.118-.486-.88-.972-1.445-1.164-.817-.278-2.107.022-2.518-.477-.886-1.077-1.65-2.455-1.877-3.806-.197-1.17-.747-2.311-1.53-2.364-1.445-.096-1.427-.825-1.402-1.768.03-1.153-.099-1.898-1.658-1.769-1.905.16-3.764-.024-4.445-2.456-.18-.645-1.115-1.29-1.833-1.506-.492-.148-1.2.463-1.824.705-.918.357-2-.36-1.986-1.387.015-1.081.215-2.158.245-3.24.018-.661.291-1.79-1.093-.787-.675.489-1.556.738-2.379.978-1.526.445-2.432-.42-2.334-2.111.03-.512-.034-1.03-.07-1.544-.068-.984-.356-1.351-1.306-.6-.427.338-1.057.535-1.612.576-1.678.127-2.002-.327-1.58-2.035.224-.909.464-1.813.697-2.72l-2.695 1.003c-.449.167-.886.389-1.35.489-.723.155-1.463.228-2.196.336.02-.945-.03-1.9.097-2.829.046-.337.745-.614.745-.92.001-.499.558-1.58-.823-1.299-.49.1-1.002.1-1.488.211-2.219.51-2.602.312-2.298-2.007.146-1.115-.5-.649-.728-.588-1.399.37-2.77.843-4.163 1.234C.7 5.057.336 4.95 0 4.933c.102-.34.118-.745.32-1.009C2.728.787 6.16.042 9.857 0c.807-.009.958.35.578 1.174-.327.707-.643 1.884 1.03.975.61-.331 1.487-.986 2.322.147.658.892.833 1.523.13 2.395-.223.275-.296.714-.32 1.086-.018.267.109.742.258.78.298.075.792.03.966-.17.909-1.053 2.066-1.396 3.402-1.568 1.345-.174 1.668.423 1.53 1.544-.057.47-.162.962-.374 1.379-.699 1.371-.796 2.007 1.15 1.436 1.142-.336 1.855.614 2.078 1.699.144.699.118 1.438.12 2.159.004.972.143.917.935.381.844-.57 1.959-.983 2.97-1.012 1.41-.041 2.516 1.237 2.108 2.625-.483 1.637.364 2.51 1.469 2.766 1.766.408 2.651 1.664 2.913 3 .356 1.828 1.514 1.392 2.57 1.448 1.144.06 2.297-.02 3.44.058.347.024.936.332.968.57.371 2.734 3.52 4.392 2.885 7.534-.208 1.029.473 1.491 1.57 1.742 1.98.452 3.135 1.94 4.51 3.447 2.144 2.352 3.452 5.684 6.969 6.765.737.226 1.22 1.458 1.705 2.293.955 1.645 2.192 2.801 3.888 3.846 2.193 1.35 3.9 3.492 5.793 5.318.343.33.503.86.861 1.163 1.287 1.09 2.897.532 3.08-1.114.11-.983-.219-2.417 1.085-2.338.717.044 1.355 1.493 2.018 2.318.052.065-.027.243.028.298 1.8 1.824 1.962 4.357 2.834 6.574.704 1.788 1.226 3.66 1.663 5.531.1.428-.482 1.01-.959 1.751Z" fill="#fff"/></svg>
